static/svg/upload.svg

<svg xmlns="http://www.w3.org/2000/svg" width="24" height="24">
  <g fill="none" fill-rule="evenodd">
    <path d="M0 0h24v24H0z"/>
    <path fill="#8F97A8" fill-rule="nonzero" d="M9 16h6v-6h4l-7-7-7 7h4v6zm-4 2h14v2H5v-2z"/>
  </g>
</svg>

<?xml version="1.0" encoding="UTF-8"?>
<svg width="24px" height="24px" viewBox="0 0 24 24" version="1.1" xmlns="http://www.w3.org/2000/svg" xmlns:xlink="http://www.w3.org/1999/xlink">
    <g stroke="none" stroke-width="1" fill="none" fill-rule="evenodd">
        <g id="upload">
            <polygon id="artboard" points="0 0 24 0 24 24 0 24"></polygon>
            <path d="M9,16 L15,16 L15,10 L19,10 L12,3 L5,10 L9,10 L9,16 Z M5,18 L19,18 L19,20 L5,20 L5,18 Z" id="arrow-upload" fill="#8F97A8" fill-rule="nonzero"></path>
        </g>
    </g>
</svg>
